public/steps/code.svg

<svg width="32" height="32" viewBox="0 0 32 32" fill="none" xmlns="http://www.w3.org/2000/svg">
<path d="M24.2894 24.6138L30.9889 15.9963L24.2927 7.38613L22.7139 8.61388L28.4554 15.9965L22.7104 23.3862L24.2894 24.6138ZM9.28611 23.3863L3.54442 15.9999L9.28924 8.61394L7.71061 7.38606L1.01099 15.9996L7.70705 24.6137L9.28611 23.3863ZM20.658 1H18.5974L11.1525 31H13.2132L20.658 1Z" fill="#94A3B8"/>
</svg>

<svg xmlns="http://www.w3.org/2000/svg" width="32" height="32" fill="none"><path fill="#94A3B8" d="m24.29 24.61 6.7-8.61-6.7-8.61-1.58 1.22L28.46 16l-5.75 7.39 1.58 1.22Zm-15-1.22L3.54 16 9.3 8.61 7.7 7.4 1.01 16l6.7 8.61 1.58-1.22ZM20.66 1H18.6l-7.45 30h2.06l7.45-30Z"/></svg>
